svgs/thin/road-bridge.svg

<svg xmlns="http://www.w3.org/2000/svg" viewBox="0 0 640 512"><!--! Font Awesome Pro 6.4.2 by @fontawesome - https://fontawesome.com License - https://fontawesome.com/license (Commercial License) Copyright 2023 Fonticons, Inc. --><path d="M576 16H488V96c0 4.4-3.6 8-8 8s-8-3.6-8-8V16H384c-26.5 0-48 21.5-48 48V448c0 26.5 21.5 48 48 48h88V416c0-4.4 3.6-8 8-8s8 3.6 8 8v80h88c26.5 0 48-21.5 48-48V64c0-26.5-21.5-48-48-48zM384 0h96 96c35.3 0 64 28.7 64 64V448c0 35.3-28.7 64-64 64H384c-35.3 0-64-28.7-64-64V64c0-35.3 28.7-64 64-64zm96 192c4.4 0 8 3.6 8 8V312c0 4.4-3.6 8-8 8s-8-3.6-8-8V200c0-4.4 3.6-8 8-8zM8 96H288v16H232v80h56v16H8c-4.4 0-8-3.6-8-8s3.6-8 8-8H88V112H8c-4.4 0-8-3.6-8-8s3.6-8 8-8zM272 304h16v16H272c-39.8 0-72 32.2-72 72v80c0 22.1-17.9 40-40 40H128c-22.1 0-40-17.9-40-40V392c0-39.8-32.2-72-72-72H8c-4.4 0-8-3.6-8-8s3.6-8 8-8h8c48.6 0 88 39.4 88 88v80c0 13.3 10.7 24 24 24h32c13.3 0 24-10.7 24-24V392c0-48.6 39.4-88 88-88zM216 112H104v80H216V112z"/></svg>

<svg xmlns="http://www.w3.org/2000/svg" viewBox="0 0 640 512"><!--! Font Awesome Pro 6.1.1 by @fontawesome - https://fontawesome.com License - https://fontawesome.com/license (Commercial License) Copyright 2022 Fonticons, Inc. --><path d="M480 192C484.4 192 488 195.6 488 200V312C488 316.4 484.4 320 480 320C475.6 320 472 316.4 472 312V200C472 195.6 475.6 192 480 192zM384 0H576C611.3 0 640 28.65 640 64V448C640 483.3 611.3 512 576 512H384C348.7 512 320 483.3 320 448V64C320 28.65 348.7 0 384 0zM576 16H488V96C488 100.4 484.4 104 480 104C475.6 104 472 100.4 472 96V16H384C357.5 16 336 37.49 336 64V448C336 474.5 357.5 496 384 496H472V416C472 411.6 475.6 408 480 408C484.4 408 488 411.6 488 416V496H576C602.5 496 624 474.5 624 448V64C624 37.49 602.5 16 576 16zM8 96H288V112H232V192H288V208H8C3.582 208 0 204.4 0 200C0 195.6 3.582 192 8 192H88V112H8C3.582 112 0 108.4 0 104C0 99.58 3.582 96 8 96zM216 112H104V192H216V112zM272 304H288V320H272C232.2 320 200 352.2 200 392V472C200 494.1 182.1 512 160 512H128C105.9 512 88 494.1 88 472V392C88 352.2 55.76 320 16 320H8C3.582 320 0 316.4 0 312C0 307.6 3.582 304 8 304H16C64.6 304 104 343.4 104 392V472C104 485.3 114.7 496 128 496H160C173.3 496 184 485.3 184 472V392C184 343.4 223.4 304 272 304z"/></svg>
